icons/svgs/download-solid.svg

<svg width="24" height="24" viewBox="0 0 24 24" fill="none" xmlns="http://www.w3.org/2000/svg">
<path d="M13.25 3.25V12.7422L16.1016 9.89062C16.5703 9.38281 17.3906 9.38281 17.8594 9.89062C18.3672 10.3594 18.3672 11.1797 17.8594 11.6484L12.8594 16.6484C12.3906 17.1562 11.5703 17.1562 11.1016 16.6484L6.10156 11.6484C5.59375 11.1797 5.59375 10.3594 6.10156 9.89062C6.57031 9.38281 7.39062 9.38281 7.85938 9.89062L10.75 12.7422V3.25C10.75 2.58594 11.2969 2 12 2C12.6641 2 13.25 2.58594 13.25 3.25ZM4.5 15.75H8.44531L10.2031 17.5469C11.1797 18.5234 12.7812 18.5234 13.7578 17.5469L15.5156 15.75H19.5C20.8672 15.75 22 16.8828 22 18.25V19.5C22 20.9062 20.8672 22 19.5 22H4.5C3.09375 22 2 20.9062 2 19.5V18.25C2 16.8828 3.09375 15.75 4.5 15.75ZM18.875 17.9375C18.3281 17.9375 17.9375 18.3672 17.9375 18.875C17.9375 19.4219 18.3281 19.8125 18.875 19.8125C19.3828 19.8125 19.8125 19.4219 19.8125 18.875C19.8125 18.3672 19.3828 17.9375 18.875 17.9375Z" fill="black"/>
</svg>

<svg xmlns="http://www.w3.org/2000/svg" width="24" height="24" fill="currentColor" class="icon-download-solid" viewBox="0 0 24 24">
  <mask id="a" width="20" height="20" x="2" y="2" maskUnits="userSpaceOnUse" style="mask-type:alpha">
    <path d="M13.25 3.25v9.492l2.852-2.851a1.205 1.205 0 0 1 1.757 0 1.203 1.203 0 0 1 0 1.757l-5 5a1.205 1.205 0 0 1-1.757 0l-5-5a1.205 1.205 0 0 1 0-1.757 1.205 1.205 0 0 1 1.757 0l2.891 2.851V3.25c0-.664.547-1.25 1.25-1.25.664 0 1.25.586 1.25 1.25M4.5 15.75h3.945l1.758 1.797a2.523 2.523 0 0 0 3.555 0l1.758-1.797H19.5c1.367 0 2.5 1.133 2.5 2.5v1.25c0 1.406-1.133 2.5-2.5 2.5h-15A2.47 2.47 0 0 1 2 19.5v-1.25c0-1.367 1.094-2.5 2.5-2.5m14.375 2.188a.925.925 0 0 0-.937.937c0 .547.39.938.937.938a.926.926 0 0 0 .938-.938.95.95 0 0 0-.938-.937"/>
  </mask>
  <g mask="url(#a)">
    <path d="M0 0h24v24H0z"/>
  </g>
</svg>
